React/src/assets/images/backend/spring.svg

<svg width="130" height="130" viewBox="0 0 130 130" fill="none" xmlns="http://www.w3.org/2000/svg">
<g clip-path="url(#clip0)">
<path d="M118.219 6.83503C116.398 11.2005 114.067 15.3352 111.274 19.1525C105.177 13.03 97.9235 8.18066 89.9356 4.88638C81.9477 1.5921 73.3846 -0.08137 64.7442 -0.0367275C56.1038 0.00791507 47.5584 1.76978 39.605 5.14642C31.6515 8.52307 24.4487 13.4471 18.4152 19.6323C12.3818 25.8175 7.6381 33.1404 4.45999 41.1752C1.28187 49.21 -0.267255 57.7965 -0.0973314 66.4354C0.0725918 75.0742 1.95818 83.5931 5.44979 91.4968C8.94141 99.4004 13.9694 106.531 20.2414 112.474L22.6505 114.601C31.8437 122.347 43.0005 127.399 54.8868 129.198C66.773 130.998 78.9252 129.473 89.999 124.795C101.073 120.116 110.637 112.465 117.632 102.689C124.628 92.912 128.782 81.3908 129.636 69.3996C131.414 52.8043 126.541 31.8011 118.221 6.83706L118.219 6.83503ZM29.5141 112.852C28.8204 113.709 27.888 114.341 26.835 114.668C25.7819 114.996 24.6555 115.003 23.5982 114.69C22.5409 114.377 21.6003 113.757 20.8954 112.909C20.1905 112.061 19.7529 111.023 19.638 109.926C19.5231 108.83 19.7361 107.723 20.2501 106.748C20.764 105.772 21.5558 104.971 22.5252 104.446C23.4946 103.92 24.5981 103.694 25.6961 103.796C26.7941 103.898 27.8372 104.323 28.6934 105.018C29.8403 105.948 30.571 107.296 30.7248 108.765C30.8787 110.234 30.4432 111.704 29.5141 112.852V112.852ZM117.951 93.3318C101.863 114.761 67.5147 107.53 45.4919 108.57C45.4919 108.57 41.5878 108.8 37.6573 109.444C37.6573 109.444 39.1401 108.814 41.0353 108.097C56.5012 102.714 63.8117 101.678 73.2062 96.8438C90.8944 87.8514 108.392 68.1585 112.027 47.6875C105.298 67.3805 84.8636 84.315 66.2634 91.1928C53.5153 95.8911 30.485 100.468 30.485 100.468L29.5567 99.9699C13.8876 92.3527 13.4042 58.4166 41.9006 47.4722C54.3786 42.6663 66.3162 45.3049 79.7916 42.0894C94.1809 38.6708 110.829 27.891 117.603 13.8225C125.18 36.3288 134.308 71.5547 117.94 93.346L117.951 93.3318Z" fill="#68BD45"/>
</g>
<defs>
<clipPath id="clip0">
<rect width="130" height="130" fill="white"/>
</clipPath>
</defs>
</svg>

<svg width="130" height="130" fill="none" xmlns="http://www.w3.org/2000/svg"><g clip-path="url(#clip0)"><path d="M118.219 6.835a59.937 59.937 0 01-6.945 12.317 65.191 65.191 0 10-91.033 93.322l2.41 2.127A65.163 65.163 0 00129.636 69.4c1.778-16.596-3.095-37.599-11.415-62.563l-.002-.002zM29.514 112.852a5.573 5.573 0 11-8.664-7.013 5.573 5.573 0 018.664 7.013zm88.437-19.52c-16.088 21.429-50.436 14.198-72.46 15.238 0 0-3.903.23-7.834.874 0 0 1.483-.63 3.378-1.347 15.466-5.383 22.777-6.419 32.171-11.253 17.688-8.993 35.186-28.685 38.821-49.156-6.729 19.692-27.163 36.627-45.764 43.505-12.748 4.698-35.778 9.275-35.778 9.275l-.928-.498C13.887 92.353 13.404 58.417 41.9 47.472c12.478-4.806 24.415-2.167 37.89-5.383 14.39-3.418 31.038-14.198 37.812-28.267 7.577 22.507 16.705 57.733.337 79.524l.011-.014z" fill="#68BD45"/></g><defs><clipPath id="clip0"><path fill="#fff" d="M0 0h130v130H0z"/></clipPath></defs></svg>
